digitransit-component/packages/digitransit-component-icon/src/assets/citybike-stop-default-secondary.svg

<svg width="24" height="24" viewBox="0 0 32 32" xmlns="http://www.w3.org/2000/svg">
    <rect x="14.5" y="22" width="3" height="8" rx="1.5" fill="#333333"/>
    <circle cx="16" cy="13" r="11" fill="#333333" />
    <path fill-rule="evenodd" clip-rule="evenodd" d="M14.0395 12.2678L14.8871 14.4746L12.3951 14.7146L14.0395 12.2678ZM18.8807 12.1214L19.5463 13.8586C19.8123 14.5622 20.2495 15.2342 20.5779 15.6094C20.9219 16.0158 21.4063 15.5938 21.1095 15.2186C20.7811 14.8122 20.4215 14.2026 20.1715 13.5618L18.9643 10.373H19.9351L20.4663 11.7174C20.5447 11.905 20.6543 11.983 20.8259 11.983H22.1231C22.3111 11.983 22.4359 11.8894 22.4827 11.733L23.1395 9.8262C23.2955 9.3882 22.7643 9.201 22.5923 9.5758C22.0763 10.717 21.0139 10.5606 20.6231 10.1074C20.4663 9.9198 20.3571 9.8262 20.1539 9.8262H18.7571L18.7531 9.815L18.7581 9.80721L18.7631 9.7994C19.0551 9.3542 19.1371 9.2026 19.2063 8.8642C19.2743 8.5338 19.2067 8.2254 19.0147 7.993C18.8075 7.7426 18.5003 7.585 18.1251 7.5926C17.6031 7.601 17.2011 8.019 17.1567 8.0674C17.0299 8.2038 17.0379 8.4178 17.1751 8.5454C17.3131 8.6718 17.5171 8.6582 17.6539 8.5274C17.7315 8.4522 17.9371 8.2602 18.1351 8.2574C18.3039 8.2526 18.3955 8.3258 18.4479 8.3806C18.5267 8.4634 18.5775 8.6198 18.5391 8.7678C18.5111 8.8758 18.4791 8.9782 18.2547 9.3374L18.2539 9.3366C18.0715 9.5558 17.9811 9.7594 18.0591 9.9782L18.6207 11.4434C17.5651 12.151 16.7811 13.1786 16.4843 14.5058C16.2747 14.3938 16.0411 14.3602 15.7639 14.3902L15.5947 14.4066L13.7575 9.6158C13.9303 9.5686 14.1291 9.5286 14.3727 9.5134L14.5759 9.4978C14.7791 9.4822 14.9351 9.3574 14.9351 9.1694C14.9351 8.9822 14.7947 8.8258 14.5447 8.8258H13.5443C13.1262 8.8258 12.9054 8.82204 12.7152 8.8188C12.571 8.81635 12.4444 8.8142 12.2627 8.8142C12.0123 8.8142 11.8563 8.9038 11.8563 9.0914C11.8563 9.4822 12.3719 9.8418 12.8563 9.8418C12.9395 9.8418 13.0183 9.8314 13.0975 9.815L13.7431 11.4966L13.0911 12.4678C12.4343 11.983 11.6531 11.7174 10.8559 11.7174C9.93227 11.7174 9.06787 12.0542 8.44627 12.5722C8.42587 12.5894 8.29507 12.713 8.27627 12.7318C8.09507 12.913 8.15307 13.237 8.40587 13.2822C8.42127 13.2848 8.48127 13.301 8.52756 13.3136L8.52761 13.3136C8.55226 13.3202 8.57301 13.3259 8.58107 13.3278C9.54107 13.5594 10.4515 14.1486 11.1771 14.929C10.9783 15.0614 10.8559 15.2738 10.8559 15.4998C10.8559 15.9062 11.1215 16.1878 11.5747 16.2346L15.6543 16.6722C16.4203 16.7506 17.0455 16.4222 17.1079 15.4846L17.1235 15.2654C17.1979 14.0562 17.8299 12.891 18.8807 12.1214ZM11.4809 17.7195C10.2305 17.7195 9.21451 16.7191 9.21451 15.4687C9.21451 15.0779 9.32411 14.6871 9.55851 14.3119C9.37091 14.1867 9.13651 14.0775 8.93291 13.9991C8.66731 14.4371 8.52651 14.9687 8.52651 15.4687C8.52651 17.0943 9.85571 18.4071 11.4809 18.4071C12.5281 18.4071 13.4661 17.8603 13.9817 17.0159L13.1533 16.9223C12.7785 17.4223 12.1685 17.7195 11.4809 17.7195ZM20.3747 12.5769C20.531 12.5457 20.703 12.5301 20.8906 12.5301C22.5158 12.5301 23.829 13.8429 23.829 15.4689C23.829 17.0941 22.5158 18.4073 20.8906 18.4073C19.265 18.4073 17.9362 17.0941 17.9362 15.4689C17.9362 14.6557 18.2802 13.9057 18.8118 13.3741L19.0931 14.1089C18.8118 14.4841 18.6398 14.9529 18.6398 15.4689C18.6398 16.7193 19.6402 17.7197 20.8906 17.7197C22.125 17.7197 23.141 16.7193 23.141 15.4689C23.141 14.2337 22.125 13.2177 20.8906 13.2177C20.7966 13.2177 20.703 13.2177 20.6246 13.2333L20.3747 12.5769Z" />
</svg>

<svg xmlns="http://www.w3.org/2000/svg" width="24" height="24" viewBox="0 0 32 32">
 <rect width="3" height="8" x="14.5" y="22" fill="#333" rx="1.5"/>
 <circle cx="16" cy="13" r="11" fill="#333"/>
 <path fill-rule="evenodd" d="m14.04 12.268.847 2.207-2.492.24zm4.84-.147.666 1.738a6.2 6.2 0 0 0 1.032 1.75c.344.407.828-.015.532-.39a6.6 6.6 0 0 1-.938-1.657l-1.208-3.189h.971l.531 1.344c.079.188.188.266.36.266h1.297c.188 0 .313-.094.36-.25l.657-1.907c.155-.438-.376-.625-.548-.25-.516 1.141-1.578.985-1.969.531-.157-.187-.266-.28-.47-.28h-1.396l-.004-.012.005-.008.005-.008c.292-.445.374-.596.443-.935.068-.33 0-.639-.191-.871a1.1 1.1 0 0 0-.89-.4c-.522.008-.924.426-.968.474a.34.34 0 0 0 .018.478c.138.127.342.113.479-.018.078-.075.283-.267.481-.27a.39.39 0 0 1 .313.124c.079.082.13.239.091.387-.028.108-.06.21-.284.57l-.001-.001c-.183.219-.273.422-.195.641l.562 1.465c-1.056.708-1.84 1.736-2.137 3.063-.21-.112-.443-.146-.72-.116l-.17.017-1.836-4.791c.172-.047.371-.087.615-.103l.203-.015c.203-.016.36-.14.36-.329 0-.187-.141-.343-.391-.343h-1c-.419 0-.64-.004-.83-.007-.144-.003-.27-.005-.452-.005-.25 0-.407.09-.407.277 0 .391.516.75 1 .75q.124-.001.242-.026l.645 1.682-.652.97a3.77 3.77 0 0 0-2.235-.75c-.924 0-1.788.337-2.41.855-.02.017-.15.141-.17.16-.18.181-.123.505.13.55l.122.032.053.014c.96.231 1.87.82 2.596 1.601a.7.7 0 0 0-.321.57c0 .407.265.689.719.736l4.08.437c.765.079 1.39-.25 1.453-1.187l.015-.22c.075-1.209.707-2.374 1.758-3.144m-7.4 5.599c-1.25 0-2.265-1-2.265-2.251 0-.391.11-.782.344-1.157a3.3 3.3 0 0 0-.626-.313c-.266.438-.406.97-.406 1.47a2.95 2.95 0 0 0 2.954 2.938 2.93 2.93 0 0 0 2.5-1.391l-.828-.094c-.375.5-.985.797-1.672.797m8.895-5.143a2.935 2.935 0 0 1 3.454 2.892 2.935 2.935 0 0 1-2.938 2.938 2.95 2.95 0 0 1-2.955-2.938c0-.813.344-1.563.876-2.095l.281.735a2.26 2.26 0 0 0-.453 1.36c0 1.25 1 2.25 2.25 2.25 1.235 0 2.251-1 2.251-2.25a2.26 2.26 0 0 0-2.25-2.251c-.094 0-.188 0-.266.015z" clip-rule="evenodd"/>
</svg>
